X: 172102
T: Quinn's Bush
C: Joe Liddy
Z: BB
S: "The Leitrim Fiddler" (Dublin 1981)
L: 1/8
M: 4/4
R: reel
Q: 1/4 = 180
K: Ador
AG |: EA A2 ABcd | eA^cA eA^cA | EG G2 GABc | dGBG dGBG |
EA A2 ABcd | eABA GABd | cBcd edfa | gedB A2 BG :|
EA A2 ABcd | eA^cA eA^cA | G3F GABG | EGDB, G,A,B,D |
EA A2 ABcd | eABA GFGA | BABd edfa | gedB A2 Bd |
|: ea a2 eaga | ba (3bag edBc | dg g2 dgfg | eaaf ge d2 |
[1 ea a2 ea^ga | bagf ge d2 | cdef =gefa | gedB A2 Bd :|
[2 ea a2 efgb | a^ged ^cAGE | ABcd gefa | gedB A4 ||
%%%%%%%%%%%%%%%%%%%
